packages/radix-icons/twoTone/15/external-link.svg

<svg width="15" height="15" fill="none" xmlns="http://www.w3.org/2000/svg">
  <path
    fill-rule="evenodd"
    clip-rule="evenodd"
    d="M13.2092 1.79502C13.304 1.8904 13.3757 2.00014 13.4241 2.11722C13.4727 2.23425 13.4996 2.3625 13.5 2.497L13.5 2.5V2.50069V5.5C13.5 6.05229 13.0523 6.5 12.5 6.5C11.9477 6.5 11.5 6.05229 11.5 5.5V4.91421L10.5 5.91421V12C10.5 12.2761 10.2761 12.5 10 12.5H3C2.72386 12.5 2.5 12.2761 2.5 12V5C2.5 4.72386 2.72386 4.5 3 4.5H9.08579L10.0858 3.5H9.5C8.94772 3.5 8.5 3.05228 8.5 2.5C8.5 1.94772 8.94772 1.5 9.5 1.5H12.4998H12.5C12.7751 1.5 13.0242 1.61106 13.205 1.79078L13.2092 1.79502Z"
    fill="currentColor"
    opacity=".2"
  />
  <path
    fill-rule="evenodd"
    clip-rule="evenodd"
    d="M12.8536 2.14645C12.9015 2.19439 12.9377 2.24964 12.9621 2.30861C12.9861 2.36669 12.9996 2.4303 13 2.497L13 2.5V2.50049V5.5C13 5.77614 12.7761 6 12.5 6C12.2239 6 12 5.77614 12 5.5V3.70711L6.85355 8.85355C6.65829 9.04882 6.34171 9.04882 6.14645 8.85355C5.95118 8.65829 5.95118 8.34171 6.14645 8.14645L11.2929 3H9.5C9.22386 3 9 2.77614 9 2.5C9 2.22386 9.22386 2 9.5 2H12.4999H12.5C12.5678 2 12.6324 2.01349 12.6914 2.03794C12.7504 2.06234 12.8056 2.09851 12.8536 2.14645ZM3 4C2.44772 4 2 4.44772 2 5V12C2 12.5523 2.44772 13 3 13H10C10.5523 13 11 12.5523 11 12V9.07143C11 8.79529 10.7761 8.57143 10.5 8.57143C10.2239 8.57143 10 8.79529 10 9.07143V12H3V5H5.92857C6.20471 5 6.42857 4.77614 6.42857 4.5C6.42857 4.22386 6.20471 4 5.92857 4H3Z"
    fill="currentColor"
  />
</svg>

<svg width="15" height="15" fill="none" xmlns="http://www.w3.org/2000/svg">
  <path
    fill-rule="evenodd"
    clip-rule="evenodd"
    d="M13.21 1.795a.997.997 0 01.29.702V5.5a1 1 0 11-2 0v-.586l-1 1V12a.5.5 0 01-.5.5H3a.5.5 0 01-.5-.5V5a.5.5 0 01.5-.5h6.086l1-1H9.5a1 1 0 010-2h3c.275 0 .524.111.705.29l.004.005z"
    fill="currentColor"
    opacity=".2"
  />
  <path
    fill-rule="evenodd"
    clip-rule="evenodd"
    d="M12.854 2.146a.5.5 0 01.146.351V5.5a.5.5 0 01-1 0V3.707L6.854 8.854a.5.5 0 11-.708-.708L11.293 3H9.5a.5.5 0 010-1h3a.499.499 0 01.354.146zM3 4a1 1 0 00-1 1v7a1 1 0 001 1h7a1 1 0 001-1V9.071a.5.5 0 00-1 0V12H3V5h2.929a.5.5 0 000-1H3z"
    fill="currentColor"
  />
</svg>
